X:182
T: BUNT SIND SCHON DIE WAELDER
N: B0217
O: Europa, Mitteleuropa, Deutschland
R: Jahreszeiten - Lied, Herbst
M: 6/8
L: 1/8
K: Bb
 | B2BBAB | c3B3 |
d2ddcd | e3d3 |
c2ccd=E | F3z3 |
d2cB2A | A3G3 |
e2dcdB | B3A3 |
BdfFGA | B3z3

